assets/images/avatars/user/custom-avatars/season-f1/cone-tangerine700.svg

<svg width="52" height="52" viewBox="0 0 52 52" fill="none" xmlns="http://www.w3.org/2000/svg">
<g clip-path="url(#clip0_26_81639)">
<rect width="52" height="52" fill="#780505"/>
<path d="M26 52C40.3594 52 52 40.3594 52 26C52 11.6406 40.3594 0 26 0C11.6406 0 0 11.6406 0 26C0 40.3594 11.6406 52 26 52Z" fill="#780505"/>
<path d="M25.9999 46.7669C37.4691 46.7669 46.7667 37.4693 46.7667 26.0002C46.7667 14.531 37.4691 5.2334 25.9999 5.2334C14.5308 5.2334 5.23315 14.531 5.23315 26.0002C5.23315 37.4693 14.5308 46.7669 25.9999 46.7669Z" fill="#780505" stroke="#002140" stroke-width="0.65" stroke-miterlimit="10"/>
<path d="M32.3201 19.1574L31.9878 19.2578H21.5525L21.2375 19.154C21.8467 17.2746 22.4213 15.4956 22.9093 13.9969L23.0408 14.0384H30.5411L30.7591 13.9727L32.3201 19.1574Z" fill="#FFD7B0"/>
<path d="M34.4347 26.1904L36.0442 31.5379L35.9023 31.5794H17.4925L17.2502 31.5656C17.714 30.0877 18.3024 28.2533 18.9358 26.2804L19.6696 26.36H33.874L34.4347 26.1904Z" fill="#FFD7B0"/>
<path d="M37.5706 35.2031C38.7266 35.2031 39.6715 36.148 39.6715 37.304C39.6715 37.882 39.4361 38.4081 39.0554 38.7888C38.6747 39.1696 38.1486 39.4049 37.5706 39.4049H15.1009C13.9449 39.4049 13 38.46 13 37.304C13 36.726 13.2354 36.1999 13.6161 35.8192C13.9968 35.4385 14.5229 35.2031 15.1009 35.2031H37.5706Z" fill="#FF7101"/>
<path d="M29.3815 9.40029L30.759 13.9725L30.541 14.0382H23.0407L22.9092 13.9967C23.7433 11.4285 24.3075 9.69104 24.3075 9.69104L24.4113 9.38645C25.2178 7.00866 28.5854 7.01557 29.3815 9.40029Z" fill="#FF7101"/>
<path d="M32.32 19.1568L34.4347 26.1898L33.874 26.3594H19.6695L18.9358 26.2798C19.6765 23.9781 20.4794 21.4861 21.2374 19.1533L21.5524 19.2571H31.9877L32.32 19.1568Z" fill="#FF7101"/>
<path d="M16.1877 35.058C16.1877 34.9577 16.6031 33.6044 17.2503 31.5658L17.4926 31.5796H35.9023L36.0442 31.5381L37.0618 34.9127V35.2034H16.1877V35.058Z" fill="#FF7101"/>
<path d="M37.0618 35.2031H37.5706C38.7266 35.2031 39.6715 36.148 39.6715 37.304C39.6715 37.882 39.4361 38.4081 39.0554 38.7888C38.6747 39.1696 38.1486 39.4049 37.5706 39.4049H15.1009C13.9449 39.4049 13 38.46 13 37.304C13 36.726 13.2354 36.1999 13.6161 35.8192C13.9968 35.4385 14.5229 35.2031 15.1009 35.2031H37.0618Z" stroke="#002140" stroke-width="0.65" stroke-linecap="round" stroke-linejoin="round"/>
<path d="M16.1877 35.0576C16.1877 34.9573 16.6031 33.604 17.2503 31.5654C17.7141 30.0875 18.3025 28.2531 18.9359 26.2802C19.6766 23.9786 20.4795 21.4866 21.2375 19.1538C21.8467 17.2744 22.4212 15.4953 22.9093 13.9967C23.7434 11.4285 24.3075 9.69104 24.3075 9.69104L24.4114 9.38645C25.2178 7.00866 28.5855 7.01557 29.3816 9.40029L30.7591 13.9725L32.3201 19.1572L34.4348 26.1902L36.0442 31.5377L37.0618 34.9123" stroke="#002140" stroke-width="0.65" stroke-linecap="round" stroke-linejoin="round"/>
<path d="M17.4924 31.5791H35.9022" stroke="#002140" stroke-width="0.65" stroke-linecap="round" stroke-linejoin="round"/>
<path d="M19.6697 26.3594H33.8741" stroke="#002140" stroke-width="0.65" stroke-linecap="round" stroke-linejoin="round"/>
<path d="M21.5525 19.2578H31.9878" stroke="#002140" stroke-width="0.65" stroke-linecap="round" stroke-linejoin="round"/>
<path d="M23.0408 14.0381H30.541" stroke="#002140" stroke-width="0.65" stroke-linecap="round" stroke-linejoin="round"/>
</g>
<defs>
<clipPath id="clip0_26_81639">
<rect width="52" height="52" fill="white"/>
</clipPath>
</defs>
</svg>

<svg xmlns="http://www.w3.org/2000/svg" width="52" height="52" fill="none" viewBox="0 0 52 52"><g clip-path="url(#a)"><path fill="#780505" d="M0 0h52v52H0z"/><path fill="#780505" d="M26 52c14.36 0 26-11.64 26-26S40.36 0 26 0 0 11.64 0 26s11.64 26 26 26"/><path fill="#780505" stroke="#002140" stroke-miterlimit="10" stroke-width=".65" d="M26 46.767c11.47 0 20.767-9.298 20.767-20.767S37.469 5.233 26 5.233C14.53 5.233 5.233 14.531 5.233 26c0 11.47 9.298 20.767 20.767 20.767Z"/><path fill="#ffd7b0" d="m32.32 19.157-.332.1H21.552l-.314-.103c.609-1.88 1.183-3.658 1.671-5.157l.132.041h7.5l.218-.065zm2.115 7.033 1.61 5.348-.143.041h-18.41l-.242-.013a913 913 0 0 1 1.686-5.286l.734.08h14.204z"/><path fill="#ff7101" d="M37.57 35.203c1.157 0 2.102.945 2.102 2.101 0 .578-.236 1.104-.617 1.485-.38.38-.906.616-1.484.616H15.1a2.107 2.107 0 0 1-2.101-2.101c0-.578.235-1.104.616-1.485.38-.38.907-.616 1.485-.616zM29.382 9.4l1.377 4.573-.218.065h-7.5l-.132-.041 1.399-4.306.103-.305c.807-2.377 4.174-2.37 4.97.014m2.939 9.757 2.115 7.033-.561.17H19.669l-.733-.08c.74-2.302 1.543-4.794 2.301-7.127l.315.104h10.436zM16.188 35.058c0-.1.415-1.454 1.062-3.492l.243.014h18.41l.141-.042 1.018 3.375v.29H16.188z"/><path stroke="#002140" stroke-linecap="round" stroke-linejoin="round" stroke-width=".65" d="M37.062 35.203h.509c1.156 0 2.1.945 2.1 2.101 0 .578-.235 1.104-.616 1.485-.38.38-.906.616-1.484.616H15.1a2.107 2.107 0 0 1-2.101-2.101c0-.578.235-1.104.616-1.485.38-.38.907-.616 1.485-.616zm-20.874-.145c0-.1.415-1.454 1.062-3.493a913 913 0 0 1 1.686-5.285 2564 2564 0 0 1 2.302-7.126c.609-1.88 1.183-3.659 1.671-5.157l1.399-4.306.103-.305c.807-2.377 4.174-2.37 4.97.014l1.378 4.573 1.561 5.184 2.115 7.033 1.61 5.348 1.017 3.374m-19.57-3.332h18.41M19.67 26.36h14.204m-12.321-7.102h10.435m-8.948-5.22h7.501"/></g><defs><clipPath id="a"><path fill="#fff" d="M0 0h52v52H0z"/></clipPath></defs></svg>
